X: 9067
T: Humors of Plumbridge (with piano acc.)
C: BB
R: jig
Q: 1/8=320
M: 6/8
L: 1/8
V: program 1 110 %fiddle
V: 2 volume=70 clef=bass m=D program 1 00
K: G
[V:1] A | "G"BGB dcB | "Am"cAG "Em"FGE | "G"DGB DGB | "Em"gfe "D7"d2 c |
[V:2] z|G,,2[GBD]D,2[GBD]|A,,2[AEC]E,2[GBE]|G,,2[GBD]D,2[GBD]|E,2[EBG]D,2[DAFc]|
%
[V:1] "G"BGB dcB | "Am7"cAG FGA | "G"BdB "Am"cAF | "D"AGF "G"G2 :|
[V:2] G,,2[GBD]D,2[GBD]|A,,2[GEC]E,2[A,,GC]|G,,2[GDB]A,,2[AEC]|D,2[AFD][G,,2D2B2]:|
%
[V:1] e | "Em"gfe "D"fed | "C"efe "Em7"ede | "G"gBB dcB | "Am"cAA ABc |
[V:2] z |E,2[EBG]D,2[AFD]|C,2[CGE]E,2[DBG]|G,,2[GBD]D,2[GBD]|A,,2[AEC]E,2[AEC]|
%
[V:1] "G"BGB "C"cBc | "D"d^cd "Em"efg | "G"dBd "Am"cAF | "D"AGF "G"G2 :|
[V:2] G,,2[GDB]C,2[CGE]|D,2[AFD]E,2[EBG]|G,,2[GDB]A,,2[AEC]|D,2[AFD][G,,2D2B2]:|
%%%%%%tune repeat
[V:1] A | "G"BGB dcB | "Am"cAG "Em"FGE | "G"DGB DGB | "Em"gfe "D7"d2 c |
[V:2] z|G,,2[GBD]D,2[GBD]|A,,2[AEC]E,2[GBE]|G,,2[GBD]D,2[GBD]|E,2[EBG]D,2[DAFc]|
%
[V:1] "G"BGB dcB | "Am7"cAG FGA | "G"BdB "Am"cAF | "D"AGF "G"G2 :|
[V:2] G,,2[GBD]D,2[GBD]|A,,2[GEC]E,2[A,,GC]|G,,2[GDB]A,,2[AEC]|D,2[AFD][G,,2D2B2]:|
%
[V:1] e | "Em"gfe "D"fed | "C"efe "Em7"ede | "G"gBB dcB | "Am"cAA ABc |
[V:2] z |E,2[EBG]D,2[AFD]|C,2[CGE]E,2[DBG]|G,,2[GBD]D,2[GBD]|A,,2[AEC]E,2[AEC]|
%
[V:1] "G"BGB "C"cBc | "D"d^cd "Em"efg | "G"dBd "Am"cAF |1 "D"AGF "G"G2 :|2\
"D"AGF "G"G3-|G6||
[V:2] G,,2[GDB]C,2[CGE]|D,2[AFD]E,2[EBG]|G,,2[GDB]A,,2[AEC]|1 D,2[AFD][G,,2D2B2]:|2\
D,2[AFD][G,,3-D3-B,3-]|[G,,6D6B,6]||


%%%%%%%%%%%%%%%%%%%%%%%%%%%%%%%%%%%%%%%%%%%

